src/components/00-materials/images-raw/Inbox.svg

<svg width="96" height="96" viewBox="0 0 96 96" fill="none" xmlns="http://www.w3.org/2000/svg">
<path d="M18.2 39.94C18.8101 36.0553 20.7876 32.5161 23.7761 29.9603C26.7646 27.4045 30.5676 26 34.5 26C38.8761 26 43.0729 27.7384 46.1673 30.8327C49.2616 33.9271 51 38.1239 51 42.5V67M18 67V60V67Z" stroke="#00008F" stroke-width="2" stroke-linecap="round" stroke-linejoin="round"/>
<path d="M34 26H67.5C71.8761 26 76.0729 27.7384 79.1673 30.8327C82.2616 33.9271 84 38.1239 84 42.5V72H51M43 81V72M59 72V81M56 21V31M56 21H66V15H56V21Z" stroke="#00008F" stroke-width="2" stroke-linecap="round" stroke-linejoin="round"/>
<path d="M12 43L27 54L42 43M12.65 59.35L21.81 50.19M41.36 59.36L32.19 50.19" stroke="#00008F" stroke-width="2" stroke-linecap="round" stroke-linejoin="round"/>
<path d="M40 40H14C12.8954 40 12 40.8954 12 42V58C12 59.1046 12.8954 60 14 60H40C41.1046 60 42 59.1046 42 58V42C42 40.8954 41.1046 40 40 40Z" stroke="#00008F" stroke-width="2" stroke-linecap="round" stroke-linejoin="round"/>
<path d="M51.5 67H17.5C16.1193 67 15 68.1193 15 69.5C15 70.8807 16.1193 72 17.5 72H51.5C52.8807 72 54 70.8807 54 69.5C54 68.1193 52.8807 67 51.5 67Z" stroke="#00008F" stroke-width="2" stroke-linecap="round" stroke-linejoin="round"/>
</svg>

<svg width="96" height="96" viewBox="0 0 96 96" fill="none" xmlns="http://www.w3.org/2000/svg"><path d="M18.2 39.94A16.5 16.5 0 0151 42.5V67m-33 0v-7 7z" stroke="#00008F" stroke-width="2" stroke-linecap="round" stroke-linejoin="round"/><path d="M34 26h33.5A16.5 16.5 0 0184 42.5V72H51m-8 9v-9m16 0v9m-3-60v10m0-10h10v-6H56v6z" stroke="#00008F" stroke-width="2" stroke-linecap="round" stroke-linejoin="round"/><path d="M12 43l15 11 15-11M12.65 59.35l9.16-9.16m19.55 9.17l-9.17-9.17" stroke="#00008F" stroke-width="2" stroke-linecap="round" stroke-linejoin="round"/><path d="M40 40H14a2 2 0 00-2 2v16a2 2 0 002 2h26a2 2 0 002-2V42a2 2 0 00-2-2zM51.5 67h-34a2.5 2.5 0 000 5h34a2.5 2.5 0 000-5z" stroke="#00008F" stroke-width="2" stroke-linecap="round" stroke-linejoin="round"/></svg>
